svgs/sharp-regular/alt.svg

<svg xmlns="http://www.w3.org/2000/svg" viewBox="0 0 640 512"><!--! Font Awesome Pro 6.6.0 by @fontawesome - https://fontawesome.com License - https://fontawesome.com/license (Commercial License) Copyright 2024 Fonticons, Inc. --><path d="M464 64l-11 0-7.2 8.4L165 400 24 400 0 400l0 48 24 0 152 0 11 0 7.2-8.4L475 112l141 0 24 0 0-48-24 0L464 64zM440 400l-24 0 0 48 24 0 176 0 24 0 0-48-24 0-176 0z"/></svg>

<svg xmlns="http://www.w3.org/2000/svg" viewBox="0 0 640 512"><!--! Font Awesome Pro 6.4.2 by @fontawesome - https://fontawesome.com License - https://fontawesome.com/license (Commercial License) Copyright 2023 Fonticons, Inc. --><path d="M464 64H453l-7.2 8.4L165 400H24 0v48H24 176h11l7.2-8.4L475 112H616h24V64H616 464zM440 400H416v48h24H616h24V400H616 440z"/></svg>
